X:1
T:Klein, LMD
T:Klein, LMD
T:Arranged from Klein, 1884
T:Public Domain Courtesy of the Cyber Hymnal™
C:Arranged from Klein, 1884
Z:Public Domain
Z:Courtesy of the Cyber Hymnal™
%%score ( 1 2 ) ( 3 4 )
L:1/8
Q:1/4=100
M:4/4
K:F
V:1 treble 
V:2 treble 
V:3 bass 
V:4 bass 
V:1
 [FA]2 [EA][EG] | F2 C2 F2 [EG]2 | [FA]4 [FA]2 [FA][FB] | [Fc]2 [FA]2 [Fd]3 [GB] | %4
 [EG]4 [FA]2 [EA][EG] | F2 C2 F2 [EG]2 | [FA]4 [FG]2 [FA][FG] | (GA) (=Bc) [Fd]2 [DB]2 | %8
 [Ec]4 [Ac]2 [Ac][Ac] | [Ad]3 [^FA] [GB]2 [Ac]2 | ([Ac]2 [GB]2) [GB]2 [GB][GB] | %11
 [Gc]3 [EG] [FA]2 [GB]2 | ([GB]2 [FA]2) C2 CC | F2 C2 [EG]2 C2 | [FA]4 [GB]2 [FA][EG] | %15
 [Fc]3 [GB] [FA]2 [EG]2 | F4 |] %17
V:2
 x4 | F2 C2 F2 x2 | x8 | x8 | x8 | F2 C2 F2 x2 | x8 | E2 E2 x4 | x8 | x8 | x8 | x8 | x4 C2 CC | %13
 F2 C2 C2 x2 | x8 | x8 | F4 |] %17
V:3
 [F,C]2 [C,C][C,B,] | [F,A,]2 [F,A,]2 [A,C]2 C2 | [F,C]4 [F,C]2 [F,C][G,B,] | %3
 A,2 [G,C]2 [B,,B,]3 [B,,D] | [C,C]4 [F,C]2 [C,C][C,C] | [F,A,]2 [F,A,]2 [A,C]2 C2 | %6
 [F,C]4 [G,=B,]2 [G,C][G,B,] | C2 [A,C]2 [F,A,]2 G,2 | [C,G,]4 [A,E]2 [A,E][G,_E] | %9
 [^F,D]3 [D,D] [D,D]2 [F,D]2 | [G,D]4 [G,D]2 [G,D][F,_D] | [E,C]3 [C,C] [C,C]2 [E,C]2 | %12
 [F,C]4 C2 CC | [A,C]2 [A,C]2 [G,C]2 C2 | [F,C]4 [C,C]2 [C,C][B,,C] | %15
 [A,,C]3 [B,,D] [C,C]2 [C,B,]2 | [F,A,]4 |] %17
V:4
 x4 | x6 C2 | x8 | A,2 x6 | x8 | x6 C2 | x8 | C2 x2 G,2 x2 | x8 | x8 | x8 | x8 | x4 C2 CC | x6 C2 | %14
 x8 | x8 | x4 |] %17

